X: 30541
T: On The Lam
R: reel
M: 4/4
K: Dminor
A,DDE AGED|(3E^FG AG c2 AG|A=BcA d3 e|fgef dcA^F|
~G2 AG c2 AG|DE ~E2 CE DE|F2 AF E2 CE|1 FDD^C D2 =CD:|2 FDD^C D2 AA||
|:Bdfa gfed|ef ~f2 edcA|Bdfa gfe^c|^FGA=B c2 de|
fd ~d2 dcAG|ECDE C2 DE|F2 AF E2 CE|1 FDD^C D2 BB:|2 FDD^C D2 =CD||

